X:1
T:Farnham, CM
T:English Traditional Melody
T:Farnham, CM
T:Public Domain
C:English Traditional Melody
Z:Public Domain
%%score ( 1 2 ) ( 3 4 )
L:1/8
M:4/4
K:Bb
V:1 treble 
V:2 treble 
V:3 bass 
V:4 bass 
V:1
 D2 | [DG]3 [DA] [DB]2 [^FA]2 | G2 [DG]2 D2 D2 | [DB]2 (Bc) [Fd]2 [Gc]2 | [^Fd]6 ([GB][=Fc]) | %5
 [Fd]3 [Fd] [Ec]2 [DA]2 | [DB]2 ([Dd][=EB]) [^FA]2 (dc) | D2 z A [EG]2 (BA) | [B,G]6 |] %9
V:2
 D2 | x8 | G2 D2 D2 x2 | x2 G2 x4 | x8 | x8 | x6 D2 | B3 (D2 x D2) | x6 |] %9
V:3
 [G,B,]2 | [G,B,]3 [^F,D] [G,D]2 [A,C]2 | [B,D]2 (B,,C,) [D,^F,]2 [F,A,]2 | %3
 G,2 [E,B,]2 [B,,B,]2 [E,G,]2 | [D,A,]6 (G,[A,C]) | B,3 [B,,B,] [B,,G,]2 [D,^F,]2 | %6
 G,2 (B,,C,) [D,D]2 [^F,A,]2 | G,2 [B,,G,]2 [C,G,]2 (G,^F,) | [G,,G,]6 |] %9
V:4
 x2 | x8 | x2 G,2 x4 | G,2 x6 | x6 G, x | B,3 x5 | G,2 G,2 x4 | G,2 x2 D,2 x2 | x6 |] %9

